src/assets/icons/letters,fancy,serif-y.svg

<svg width="48" height="48" viewBox="0 0 48 48" fill="none" xmlns="http://www.w3.org/2000/svg">
<path d="M13.4025 12.528C13.0225 11.8693 12.6678 11.3247 12.3385 10.894C12.0345 10.4633 11.7178 10.134 11.3885 9.906C11.0591 9.65266 10.7045 9.488 10.3245 9.412C9.94445 9.31067 9.51379 9.26 9.03245 9.26V7.74H21.8005V9.26C20.7365 9.26 19.9891 9.36133 19.5585 9.564C19.1278 9.76666 18.9125 10.0707 18.9125 10.476C18.9125 10.7293 18.9885 11.0333 19.1405 11.388C19.2925 11.7427 19.5331 12.224 19.8625 12.832L25.2965 23.206H25.4485L30.2365 15.226C31.0725 13.8073 31.6551 12.756 31.9845 12.072C32.3138 11.3627 32.4785 10.8053 32.4785 10.4C32.4785 9.96933 32.2758 9.678 31.8705 9.526C31.4905 9.34867 30.7685 9.26 29.7045 9.26V7.74H39.2425V9.26C38.6851 9.26 38.1785 9.34867 37.7225 9.526C37.2665 9.70333 36.7851 10.058 36.2785 10.59C35.7971 11.0967 35.2398 11.8187 34.6065 12.756C33.9985 13.668 33.2638 14.8713 32.4025 16.366L26.8545 25.866V29.742C26.8545 31.0087 26.9051 32.022 27.0065 32.782C27.1331 33.542 27.3358 34.1247 27.6145 34.53C27.9185 34.91 28.3238 35.1633 28.8305 35.29C29.3371 35.4167 29.9958 35.48 30.8065 35.48V37H17.2785V35.48C18.0638 35.48 18.7098 35.4167 19.2165 35.29C19.7485 35.1633 20.1665 34.91 20.4705 34.53C20.7745 34.15 20.9771 33.6053 21.0785 32.896C21.2051 32.1613 21.2685 31.1987 21.2685 30.008V26.512L13.4025 12.528Z" fill="black"/>
</svg>

<svg xmlns="http://www.w3.org/2000/svg" width="48" height="48" fill="none" viewBox="0 0 48 48">
  <path fill="#000" d="M13.402 12.528a15.375 15.375 0 00-1.063-1.634c-.305-.43-.621-.76-.95-.988a2.552 2.552 0 00-1.064-.494 5.024 5.024 0 00-1.293-.152V7.74H21.8v1.52c-1.064 0-1.81.101-2.242.304-.43.203-.645.507-.645.912 0 .253.075.557.227.912.152.355.393.836.723 1.444l5.434 10.374h.151l4.788-7.98c.837-1.419 1.42-2.47 1.748-3.154.33-.71.494-1.267.494-1.672 0-.43-.202-.722-.608-.874-.38-.177-1.102-.266-2.166-.266V7.74h9.538v1.52c-.557 0-1.063.089-1.52.266-.456.177-.937.532-1.444 1.064-.48.507-1.038 1.229-1.672 2.166-.608.912-1.342 2.115-2.203 3.61l-5.548 9.5v3.876c0 1.267.05 2.28.151 3.04.127.76.33 1.343.608 1.748.305.38.71.633 1.216.76.507.127 1.166.19 1.977.19V37H17.279v-1.52c.785 0 1.43-.063 1.938-.19.532-.127.95-.38 1.254-.76.303-.38.506-.925.607-1.634.127-.735.19-1.697.19-2.888v-3.496l-7.866-13.984z"/>
</svg>
